X:1
T:075 - Que Grande Amigo
T:Letra: James Grindley Small (1817-1888)
T:Trad.: Stuart Edmund McNair (1867-1959)
T:MÃºsica: George Coles Stebbins (1878)
L:1/16
Q:1/4=100
M:3/4
K:Gmaj
V:1
D4|"G"D3BB4"(C)"c4|"D7"B3AA4 "(C)"G4|"(D7)"F6E2 D3E|"G"D4G4D4|D3BB4A2B2|"C"c3EE4G4|"G/D"D6E2 G3F|"D7"F4"G"HG4D4|"D"c3BA4D4|"G"B3AG4F4|"C"E6F2 "Ab7"G3B|"G/D"B4"D"A4"Db7"D4|"G"D3BB4A2B2|"C"c3EE4G4|"G/D"D6E2 "D7"G3F|F4"G"HG4|]
w:1.~Que gran-dea-mi-go~Ã© meu Je-sus, TÃ£o san-to, bom e ter-no! Sem ou-tro igual, o_ seu po-der, E~o seu a-mor, su-per-no. Pa-raes-tao-ve-lha sem vi-gor O-lhou com sim-pa-ti-a, E su-a tÃ£o bon_do-sa mÃ£o Ser-viu-me,en-tÃ£o, de gui-a.
w:2.~Que gran-dea-mi-go~Ã© meu Je-sus, De lon-ge quis bus-car-me! Des-ceu, che-gou, so_freu, pe-nou, Mor-reu pra res-ga-tar-me! As glÃ³-rias do seu san-to lar Re-no-vam meu a-len-to, Pois em bre-vees-pe-ro re-ce-ber O seu a-co-lhi-men-to.
w:3.~Que gran-dea-mi-go~Ã© meu Je-sus, Meu gui-a tÃ£o pru-den-te, Meu pro-te-tor tÃ£o_ i-de-al, E ca-pi-tÃ£o va-len-te! Sou de Je-sus, Je-sus Ã© meu, Por tem-pos sem-pi-ter-nos, E go-za-rei de_ Deus no cÃ©u Fa-vo-res seus pa-ter-nos.          				
W:
W:
W:1.Que grande amigo Ã© meu Jesus,
W:TÃ£o santo, bom e terno!
W:Sem outro igual, o seu poder,
W:E o seu amor, superno.
W:Para esta ovelha sem vigor
W:Olhou com simpatia,
W:E sua tÃ£o bondosa mÃ£o
W:Serviu-me, entÃ£o, de guia.
W:
W:2. Que grande amigo Ã© meu Jesus,
W:De longe quis buscar-me!
W:Desceu, chegou, sofreu, penou,
W:Morreu pra resgatar-me!
W:As glÃ³rias do seu santo lar
W:Renovam meu alento,
W:Pois em breve espero receber
W:O seu acolhimento.
W:
W:
W:
W:3. Que grande amigo Ã© meu Jesus,
W:Meu guia tÃ£o prudente,
W:Meu protetor tÃ£o ideal,
W:E capitÃ£o valente!
W:Sou de Jesus, Jesus Ã© meu,
W:Por tempos sempiternos,
W:E gozarei de Deus no cÃ©u
W:Favores seus paternos.
W:
W:
W:

